X:2120 
T:Haink soureyder rish gys dorrys ven treoghe
T:As feill veagh eck eh as feill veagh ayms 
C:Tom Kermode, Bradda 
C:Traditional
O:Isle of Man
Z:Clague collection
B:Kiaull Vannin #120 
M:6/8 
L:1/8
Q:160 
K:F 
A|A2D D2E|F2G A2B|A2D D2G|F2 D D2z| 
K:D 
d3 (dc)d|e2c !fermata!d2d|d2D D2d|d2D D3|d3 (dc)d|e2c d2d|d2D DEG|F2D D2:| 

